X:350
T:The woodchoppers reel
R:Reel
S:My arrangement from various sources
Z:Transcription, arrangement, chords:Mike Long
M:C|
L:1/8
K:D
fg|\
"D"afdB AdFA|DFAd f2ef|"A"(3(gfe) ce Aece|\
"A"a^gab "(G)"a=gfg|"D"afdB AdFA|
DFAd f2ef|"A"(3(gfe) ce Aece|"G"d2dc "D"d2:|\
|:z2|\
"D"DF"D"Ad "G"(3(BdB) "D"AF|\
"D"DF"D"Ad "G"(3(BdB) "D"AF|
"A"A,CEA ceaf|"(G)"gfed "A"cBAF|"D"DF"D"Ad "G"(3(BdB) "D"AF|\
"D"DF"D"Ad "G"(3(BdB) "D"AF|"A"A,CEA ceaf|"(G)"(3(gfe) cA "D"d2:|
